X:1
T:Soot Spirits
T:Soot Spirits
T:from "Spirited away"
T:Composed by Joe Hisaishi Arr. by FDT 
C:Joe Hisaishi
%%score { 1 | 2 }
L:1/8
Q:1/8=110
M:4/4
K:Eb
V:1 treble nm="Piano" snm="Pno."
V:2 bass 
V:1
!mp! !>![_ce_c']4!>(! [B,_G-]3/2__B,3/2[A,G]!>)! | !>![_ce_c']4!>(! [B,_G-]3/2__B,3/2[A,G]!>)! | %2
!<(! [=A,^C]2 !^![=B,E]2 z .[A,C]!mf! !^![B,E]2!<)! | z8 | %4
 .C.[CEG]/.[CEG]/ !^![CD_G][CE=G] .[CFA].[CFA]/.[CEG]/ !^![_CDF].[=CE]/.[_C__E]/ | %5
 .C.[CEG]/.[CEG]/ !^![CD_G][CE=G] .[CFA].[CFA]/.[CEG]/ !^![_CDF].[=CE]/.[DF]/ | %6
!<(! [EG]/[DF]/.[CE]/.[_CD]/ .[G,=C][CE] [^F,D]/C/[F,B,]/=A,/ .G, z!<)! | %7
[K:Ab]!mf! .F.[FAc]/.[FAc]/ !^![FG=B][FAc] .[F_Bd].[FBd]/.[FAc]/ !^![=EGB].[FA]/.[EG]/ | %8
 .F.[FAc]/.[FAc]/ !^![FG=B][FAc] .[F_Bd].[FBd]/.[FAc]/ !^![=EGB].[FA]/.[GB]/ | %9
 [Ac]/[GB]/.[FA]/.[=EG]/ .[CF][FA] [=B,G]/F/[B,_E]/=D/ .[G,C] z | %10
!mp! [eg_c']>.[fa=c'] [eg_c']>.[fa=c'] [B=d]>.[=Be] [_Bd]>.[=Be] | %11
 [eg_c']>.[fa=c']!<(! [eg_c']>.[fa=c'] !^![dfa^c']2- [dfac']<[dfac'] | %12
 !^![_c_g=g_c']2- [cggc']<!^![cf=gc'] .!^![=ceg=c']!<)! z [CE]2 | %13
!<(! =D2 [=B,D]2 .!^![cegc']!<)! z [CE]2 | =D2 [=B,D]2 z/ G,/A,/ z G,/A,/G,/- | %15
 G,/G,/A,/G,G,/A,/G,G,/A,/G,G,/A,/G,/- | G,/G,/A,/G,G,/A,/G,/ z4 | %17
 z4!mf! .c.[ceg]/.[ceg]/ [c=d_g][ce=g] | %18
 .[cfa].[cfa]/.[ceg]/ [_c=df].[=ce]/.[_c__e]/ .=c.[c_eg]/.[ceg]/ [cd_g][ce=g] | %19
 .!^![_fc'].[fc']/.[fb]/ !^![=fa].g/.f/ .!^![__eb].[eb]/.[ea]/ !^![fg]._e/.=d/ | %20
!<(! .!^![ca].[ca]/.[cg]/ !^![ef].[_de]/.[cf]/ !^![=Bg]/f/!^![Be]/=d/!<)! !^![Cc]!mp!!mp![g=b] | %21
!mp!!mp! .[cc']!>![Gfg]!>!.[cec'] z!p! z4 | %22
!<(! .C/.C/.C/.C/ .C/.C/.C/.C/!<)!!mf! !^!c'/!^![e'g']/4!^![=d'_g']/4!^![f'a']/!^![e'=g']/ !^![=be']2 | %23
!>(! [b=d']2 z2!>)!!mp! !^!c'/!^![ge']/4!^![_gd']/4!^![af']/!^![=ge']/ !^![_d=a]2 | %24
 [ca]2 [=Bg]2!mf! c/4e/4=d/4c/4d/4e/4f/4g/4 a/a/4g/4f/4e/4d/4B/4 | %25
 c/4e/4=d/4c/4d/4e/4f/4g/4 =b/b/4g/4f/4e/4d/4e/4 c/4B/4A/4G/4B/4A/4G/4F/4 A/4G/4F/4E/4G/4F/4E/4=D/4 | %26
 c/4e/4=d/4c/4d/4e/4f/4g/4 =a/4g/4c'/4b/4a/4g/4_g/4d/4 c/4e/4d/4c/4d/4e/4f/4=g/4 _a/4g/4=b/4g/4f/4e/4d/4=B/4 | %27
 c/4e/4=d/4c/4d/4e/4f/4g/4 a/4g/4a/4g/4f/4e/4d/4=B/4 c/4e/4d/4c/4d/4e/4f/4g/4 =b/4g/4b/4g/4f/4e/4d/4e/4 | %28
 c/4=d/4e/4f/4g/4a/4b/4c'/4 b/4a/4g/4f/4a/4g/4f/4e/4 d/4e/4f/4g/4a/4g/4b/4a/4 g/4f/4e/4d/4f/4e/4d/4c/4 | %29
 A/4G/4[Be]/4A/4c/A/ _G/4=D/4e/4=G/4_G/G/!mf!!<(! [=Gg]3 [=d=d'] | %30
 [gg']4!<)!!f! !^![Cc].[Gcg]/.[Gcg]/ [Ac_g][Gc=g] | %31
 [Acfa].[Acfa]/.[Gcfg]/ [Gcf].[Gce]/.[G=d]/ !^![Cc].[Gcg]/.[Gcg]/ [Ac_g][Gc=g] | %32
 [c=egc']/[_d_d']/[cc']/[Bb]/ [Acfa][Gdg] [B_eb]/[Aa]/[Gg]/[Aa]/ [F-=df-]/d/[ef]/[Ff]/ | %33
 [AB=da]/[Gg]/[Ff]/[Gg]/ [E-ce-]/c/[de]/[Ee]/ [FAf]/[Ee]/[_D_d]/[Cc]/ [Dd]/[Cc]/[B,B]/[A,A]/ | %34
 .[G_cg] !^![_DG=B_d]2 [DGBd] .[Gcg] !^![DGBd]2 [DGBd] |!<(! z2 C2!mf! c2!f! c'2!<)! | %36
!f! .!^![cc'] z6 z |] %37
V:2
 .C,.C,.C,.C, .C,.C,.C,.C, | .C,.C,.C,.C, .C,.C,.C,.C, | .C,.C,.C,.C, .C,.C,!ped! .C,2!ped-up! | %3
 .C,,.C,.C,,.C, .C,,.C,.C,,.C, | .C,,.C,!ped!.C,,!ped-up!.C, .C,,.C,!ped!.C,,!ped-up!.C, | %5
 .C,,.C,!ped!.C,,!ped-up!.C, .C,,.C,!ped!.C,,!ped-up!.C, | %6
 .C,,.C,.C,,.C, .^F,,[^F,,,F,,].[G,,,G,,] z | %7
[K:Ab] .F,,.F,!ped!.F,,!ped-up!.F, .F,,.F,!ped!.F,,!ped-up!.F, | %8
 .F,,.F,!ped!.F,,!ped-up!.F, .F,,.F,!ped!.F,,!ped-up!.F, | %9
 .F,,.F,.F,,.F, .[G,,_C,][_C,,G,,C,].[=C,,G,,=C,] z | .C,,.C,.C,,.C, .C,,.C,.C,,.C, | %11
 .C,,.C,.C,,.C, .^C,,.^C,.C,,.C, | %12
 .G,,,.G,,.G,,,.G,, .!^![C,,C,].[G,,G,]/.[G,,G,]/ [_G,,_G,][=G,,=G,] | %13
 .[A,,A,].[A,,A,]/.[G,,G,]/ [F,,F,].[E,,E,]/.[=D,,=D,]/ .!^![C,,C,].[G,,G,]/.[G,,G,]/ [_G,,_G,][=G,,=G,] | %14
 .[A,,A,].[A,,A,]/.[G,,G,]/ [F,,F,].[E,,E,]/.[=D,,=D,]/!ped! !^![C,,C,]3/2!ped-up!!ped! !^![C,,C,]2- !^![C,,C,]/!ped-up! | %15
!ped! !^!B,,3/2!ped-up!!ped!!^!__B,,3/2!ped-up!!ped!!^!A,,!ped! !^![C,,C,]3/2!ped-up! !^![C,,C,]2- !^![C,,C,]/!ped-up! | %16
!ped! !^![E,,B,,]3/2!ped-up!!ped!!^![=D,,__B,,]3/2!ped-up!!ped!!^![_D,,A,,]!ped-up!!mp!!ped! !>![C,G,]/.[C,G,]/.[C,G,]/!ped-up!!ped!!>![C,G,]/ .[C,G,]/.[C,G,]/!ped-up!!ped!!>![C,G,]/.[C,G,]/!ped-up! | %17
!ped! !>![C,G,]/.[C,G,]/.[C,G,]/!ped-up!!ped!!>![C,G,]/ .[C,G,]/.[C,G,]/!ped-up!!ped!!>![C,G,]/.[C,G,]/!ped-up! .[C,G,]/.[C,G,]/.[C,G,]/.[C,G,]/ .[C,_G,]/.[C,G,]/.[C,=G,]/.[C,G,]/ | %18
 .[C,A,]/.[C,A,]/.[C,A,]/.[C,A,]/ .[C,=B,]/.[C,B,]/.[C,B,]/.[C,B,]/ .[C,G,]/.[C,G,]/.[C,G,]/.[C,G,]/ .[C,_G,]/.[C,G,]/.[C,=G,]/.[C,G,]/ | %19
 .[C,B,]/.[C,B,]/.[C,B,]/.[C,B,]/ .[F,C]/.[F,C]/.[F,C]/.[F,C]/ .[B,,F,B,]/.[B,,F,B,]/.[B,,F,B,]/.[B,,F,B,]/ .[B,,E,]/.[B,,E,]/.[B,,E,]/.[B,,E,]/ | %20
 [A,,C,]/[A,,C,]/[A,,C,]/[A,,C,]/ [A,,_D,]/[A,,D,]/[A,,D,]/[A,,D,]/ [G,,_C,][G,,C,][C,,=C,]G | %21
 .C[G,,G,][C,,C,] z .C,/.G,/.A,/.G,/ .C,/.G,/.A,/.G,/ | %22
 .C,/.G,/.A,/.G,/ .C,/.G,/.A,/.G,/ .C,,/.C,/.C,/.C,/ .C,,/.C,/.C,/.C,/ | %23
 .C,/.C,/.C,/.C,/ .C,/.C,/.C,/.C,/ .C,,/.C,/.C,/.C,/ .C,,/.C,/.C,/.C,/ | %24
 .C,/.C,/.C,/.C,/ .C,/.C,/.C,/.C,/ .C,/.G,/.A,/.G,/ .C,/.G,/.A,/.G,/ | %25
 .C,/.G,/.A,/.G,/ .C,/.G,/.A,/.G,/ .C,/.G,/.A,/.G,/ .C,/.G,/.A,/.G,/ | %26
 [C,,E,,-C,]>[=B,,,=B,,]- [B,,,E,,B,,]2 [=D,,=D,]3/2[F,,F,].[E,,E,]/[D,,B,,D,] | %27
 .C,/.G,/.A,/.G,/ .C,/.G,/.A,/.G,/ .C,/.G,/.A,/.G,/ .C,/.G,/.A,/.G,/ | %28
 !^![G,^C]>.[G,C] !^![F,A,]>.[C,F,] !^![=D,F,B,]>.[F,B,] !^![B,,E,G,]>.[B,,E,G,] | %29
 !^![E,,A,,E,]>.[E,,A,,E,] !^![=D,,_G,,=D,]>.[D,,G,,D,]!ped! [G,,,=G,,]3/2[_G,,_G,]3/2[F,,F,] | %30
 [E,,E,]3/2[=D,,=D,]3/2[_D,,_D,]!ped! !^![C,,G,,C,]2!ped-up!!ped! z2!ped-up! | %31
!ped! !^![C,,C,]2!ped-up!!ped! !^![C,,C,]2!ped-up!!ped! !^![C,,G,,C,]2!ped-up!!ped! z2 | %32
!ped! !^![C,,C,]2!ped-up!!ped! !^![C,,C,]2!ped-up!!ped! [F,,,F,,]2!ped-up!!ped! [B,,,B,,]2!ped-up! | %33
!ped! [E,,,E,,]2!ped-up!!ped! [A,,,A,,]2!ped-up!!ped! [_D,,_D,]4!ped-up!!ped!!ped-up! | %34
 .[_D,,_D,]!ped! !^![G,,,G,,]2!ped-up! [G,,,G,,] .[D,,D,]!ped! !^![G,,,G,,]2 [G,,,G,,]!ped-up! | %35
!mp! .G,,/.^F,,/.A,,/.G,,/!ped! .G,/.^F,/.A,/.G,/[K:treble] .[CG]/.[C^F]/.[CA]/.[CG]/ .[cg]/.[c^f]/!ped-up!.[ca]/.[cg]/ | %36
 .!^![C,C] z6 z |] %37

